dist/img/icons/clients/speed.svg

<svg width="28" height="29" viewBox="0 0 28 29" fill="none" xmlns="http://www.w3.org/2000/svg">
<g clip-path="url(#clip0)">
<path d="M8.89618 10.9236C8.82154 10.7771 8.67547 10.681 8.51168 10.6702L4.58592 10.4085C4.38249 10.3884 4.19442 10.5144 4.12021 10.7038L1.2901 17.9366C1.21403 18.1307 1.2761 18.3515 1.44224 18.4779C1.52531 18.5413 1.62517 18.5731 1.72453 18.5731C1.82297 18.5731 1.92146 18.5423 2.00453 18.4798L4.35356 16.7183L5.72128 16.9917C5.94434 17.0361 6.16736 16.9138 6.24857 16.7006C6.98307 14.7766 7.8673 12.9876 8.87568 11.3838C8.96296 11.2446 8.97089 11.0696 8.89618 10.9236ZM5.51965 15.9996L4.33163 15.7621C4.20191 15.7364 4.06656 15.7672 3.96019 15.8465L2.75675 16.749L4.8645 11.3622L7.68202 11.5498C6.87009 12.9241 6.14494 14.4163 5.51965 15.9996Z" fill="#236EFF"/>
<path d="M17.5998 23.4223L17.338 19.4961C17.3268 19.3318 17.2306 19.1858 17.0841 19.1111C16.938 19.0364 16.7631 19.0439 16.624 19.1316C15.0197 20.14 13.2311 21.0243 11.3073 21.7587C11.0945 21.8394 10.9713 22.0625 11.0161 22.286L11.2895 23.6537L9.52802 26.0023C9.40295 26.1693 9.40344 26.3989 9.52988 26.565C9.61995 26.6835 9.75852 26.7493 9.90131 26.7493C9.95824 26.7493 10.0157 26.7386 10.0716 26.718L17.3044 23.8879C17.4938 23.8138 17.6133 23.6253 17.5998 23.4223ZM11.2587 25.2501L12.1611 24.0467C12.2405 23.9408 12.2713 23.8055 12.2451 23.6753L12.0076 22.4877C13.5914 21.8624 15.0832 21.1372 16.4574 20.3253L16.6455 23.1423L11.2587 25.2501Z" fill="#236EFF"/>
<path d="M13.5326 14.008H10.3884C10.2191 14.008 10.0632 14.1 9.98059 14.2479L6.03427 21.3388C5.93162 21.5236 5.96613 21.755 6.11827 21.9016C6.20741 21.9875 6.32449 22.0322 6.44212 22.0322C6.52519 22.0322 6.6087 22.0103 6.68335 21.9646L13.7743 17.6735C13.9138 17.589 13.9992 17.4378 13.9992 17.2745V14.4747C13.9993 14.2171 13.7902 14.008 13.5326 14.008ZM13.066 17.0118L7.7049 20.2562L10.6624 14.9418V14.9413H13.066V17.0118Z" fill="#236EFF"/>
<path d="M27.9764 0.457472C27.9573 0.230248 27.7772 0.050109 27.5499 0.0309685C27.395 0.018828 12.0284 -1.05397 5.377 16.3673C5.31121 16.5395 5.35272 16.7336 5.48293 16.8638L7.70175 19.0826C7.80582 19.1867 7.95139 19.2342 8.09746 19.2147C8.2426 19.1937 8.36953 19.1059 8.44046 18.9776L10.6635 14.9413H13.0657V17.0173L9.0051 19.581C8.88517 19.657 8.80631 19.783 8.79045 19.924C8.7746 20.0649 8.82403 20.2053 8.92438 20.3057L11.1432 22.5245C11.2323 22.6136 11.3513 22.6612 11.4731 22.6612C11.5291 22.6612 11.5856 22.6514 11.6397 22.6304C29.0618 15.9786 27.9895 0.611963 27.9764 0.457472ZM25.5284 8.73648C23.891 12.7877 20.144 18.2954 11.5883 21.65L9.99707 20.0588L13.7815 17.6696C13.9168 17.5838 13.9989 17.4349 13.9989 17.2749V14.4751C13.9989 14.2175 13.7898 14.0084 13.5323 14.0084H10.3871C10.2169 14.0084 10.0605 14.1013 9.97836 14.2501L7.92192 17.9841L6.35732 16.419C12.1963 1.52327 24.6423 0.913835 27.0618 0.947905C27.079 2.03612 26.9792 5.14666 25.5284 8.73648Z" fill="#236EFF"/>
<path d="M7.99332 20.6178C7.89204 20.4835 7.7306 20.4181 7.57239 20.4349C7.58874 20.2763 7.52339 20.1153 7.38946 20.014C6.68581 19.482 5.77773 19.3052 4.89721 19.5282C3.96256 19.7657 3.1982 20.4031 2.80063 21.2781L0.0419412 27.3475C-0.0387768 27.5248 -0.000988078 27.7335 0.136659 27.8706C0.225799 27.9602 0.345235 28.0073 0.466585 28.0073C0.531936 28.0073 0.597725 27.9933 0.659795 27.9653L6.72928 25.2062C7.60373 24.8091 8.24116 24.0447 8.47866 23.1101C8.70217 22.2305 8.52531 21.322 7.99332 20.6178ZM7.57431 22.8805C7.40724 23.5389 6.95837 24.0769 6.34336 24.3569L1.40638 26.601L3.65041 21.6636C3.92991 21.0485 4.46841 20.5996 5.12684 20.4326C5.29998 20.3887 5.474 20.3673 5.64571 20.3673C5.93643 20.3673 6.22058 20.4293 6.47958 20.5502L6.03536 21.3365C5.93222 21.5189 5.9635 21.748 6.11187 21.896C6.26023 22.0448 6.48937 22.0756 6.67137 21.9725L7.45766 21.5278C7.64895 21.9393 7.69237 22.4148 7.57431 22.8805Z" fill="#236EFF"/>
<path d="M27.9764 0.458046C27.9572 0.230822 27.7771 0.0506829 27.5499 0.0315425C27.3679 0.0170505 23.0422 -0.310525 17.955 2.03292C17.8164 2.09636 17.7179 2.22422 17.6908 2.3745C17.6638 2.52478 17.7123 2.67872 17.8201 2.78651L25.2209 10.1873C25.3091 10.2755 25.4281 10.324 25.5508 10.324C25.5783 10.324 25.6059 10.3217 25.6334 10.317C25.7837 10.2899 25.9111 10.1915 25.975 10.0529C28.3189 4.96567 27.9913 0.639552 27.9764 0.458046ZM25.3996 9.04543L18.962 2.60779C22.6862 1.0357 25.9474 0.927424 27.0622 0.946127C27.0809 2.06185 26.9759 5.31288 25.3996 9.04543Z" fill="#236EFF"/>
<path d="M20.6082 7.39915C19.0389 5.82986 16.486 5.82986 14.9167 7.39915C13.3474 8.96845 13.3474 11.5213 14.9167 13.0906C15.7011 13.8755 16.7319 14.2675 17.7622 14.2675C18.793 14.2675 19.8233 13.8751 20.6082 13.0906C22.1775 11.5213 22.1775 8.96839 20.6082 7.39915ZM19.9484 12.4308C18.7431 13.6361 16.7819 13.6361 15.5766 12.4308C14.3713 11.2255 14.3713 9.26425 15.5766 8.05895C16.179 7.45652 16.9709 7.15509 17.7623 7.15509C18.5537 7.15509 19.3456 7.45652 19.9485 8.05895C21.1537 9.26425 21.1537 11.2255 19.9484 12.4308Z" fill="#236EFF"/>
</g>
<defs>
<clipPath id="clip0">
<rect width="28" height="28" fill="white" transform="translate(0 0.0078125)"/>
</clipPath>
</defs>
</svg>

<svg width="28" height="29" fill="none" xmlns="http://www.w3.org/2000/svg"><g clip-path="url(#clip0)" fill="#236EFF"><path d="M8.896 10.924a.466.466 0 00-.384-.254l-3.926-.261a.458.458 0 00-.466.295l-2.83 7.233a.466.466 0 00.715.543l2.349-1.762 1.367.274a.466.466 0 00.528-.291 30.322 30.322 0 012.627-5.317.467.467 0 00.02-.46zM5.52 16l-1.188-.238a.47.47 0 00-.372.085l-1.203.902 2.107-5.387 2.818.188A31.515 31.515 0 005.52 16zm12.08 7.422l-.262-3.926a.467.467 0 00-.714-.364 30.337 30.337 0 01-5.317 2.627.466.466 0 00-.29.527l.273 1.368-1.762 2.348a.467.467 0 00.544.716l7.232-2.83a.467.467 0 00.296-.466zm-6.341 1.828l.902-1.203a.466.466 0 00.084-.372l-.237-1.187a31.488 31.488 0 004.45-2.163l.188 2.817-5.387 2.108zm2.274-11.242h-3.145a.467.467 0 00-.407.24l-3.947 7.09a.467.467 0 00.65.627l7.09-4.291a.466.466 0 00.225-.4v-2.8a.467.467 0 00-.466-.466zm-.467 3.004l-5.361 3.244 2.957-5.314h2.404v2.07z"/><path d="M27.976.457a.467.467 0 00-.426-.426C27.395.019 12.028-1.054 5.377 16.367a.466.466 0 00.106.497l2.219 2.219a.469.469 0 00.738-.105l2.224-4.037h2.402v2.076l-4.06 2.564a.468.468 0 00-.082.725l2.22 2.218a.466.466 0 00.496.106C29.062 15.98 27.99.612 27.976.457zm-2.448 8.28c-1.637 4.05-5.384 9.558-13.94 12.913l-1.59-1.591 3.784-2.39a.468.468 0 00.217-.394v-2.8a.467.467 0 00-.467-.467h-3.145a.467.467 0 00-.409.242l-2.056 3.734-1.565-1.565C12.197 1.523 24.642.914 27.062.948c.017 1.088-.083 4.199-1.534 7.788zM7.993 20.618a.466.466 0 00-.42-.183.467.467 0 00-.184-.421 2.919 2.919 0 00-2.492-.486 3.139 3.139 0 00-2.096 1.75l-2.76 6.07a.466.466 0 00.619.617l6.07-2.759a3.138 3.138 0 001.749-2.096 2.918 2.918 0 00-.486-2.492zm-.419 2.263a2.21 2.21 0 01-1.23 1.476L1.405 26.6l2.244-4.937a2.209 2.209 0 011.996-1.297c.29 0 .575.062.834.183l-.445.787a.466.466 0 00.636.636l.787-.445c.19.411.234.887.116 1.353z"/><path d="M27.976.458a.467.467 0 00-.426-.426c-.182-.015-4.508-.343-9.595 2a.466.466 0 00-.135.755l7.4 7.4a.467.467 0 00.755-.134C28.319 4.966 27.991.64 27.976.458zM25.4 9.045l-6.438-6.437c3.724-1.572 6.985-1.68 8.1-1.662.019 1.116-.086 4.367-1.662 8.1zM20.608 7.4a4.029 4.029 0 00-5.691 0 4.029 4.029 0 000 5.69 4.01 4.01 0 002.845 1.178 4.015 4.015 0 002.846-1.177 4.029 4.029 0 000-5.692zm-.66 5.03a3.095 3.095 0 01-4.371 0 3.095 3.095 0 010-4.371 3.082 3.082 0 012.185-.904c.792 0 1.584.302 2.186.904a3.095 3.095 0 010 4.372z"/></g><defs><clipPath id="clip0"><path fill="#fff" transform="translate(0 .008)" d="M0 0h28v28H0z"/></clipPath></defs></svg>
